svg/问答助手.svg

<svg width="120" height="120" viewBox="0 0 120 120" fill="none" xmlns="http://www.w3.org/2000/svg"><g opacity="0.2"><path d="M0 30C0 13.4315 13.4315 0 30 0H90C106.569 0 120 13.4315 120 30V90C120 106.569 106.569 120 90 120H30C13.4315 120 0 106.569 0 90V30Z" fill="url(#paint1_linear_0_1)"/><path opacity="0.8" d="M92.8395 29.7521H66.4948C64.2972 29.7521 62.521 31.5462 62.521 33.766V54.4023C62.521 55.5068 63.4164 56.4023 64.521 56.4023H67.2498C68.3544 56.4023 69.2498 57.2977 69.2498 58.4023V59.9555C69.2498 61.6896 71.306 62.602 72.5918 61.4384L77.5853 56.9194C77.9531 56.5866 78.4314 56.4023 78.9273 56.4023H92.833C95.024 56.4023 96.8067 54.6081 96.8067 52.3884V33.766C96.8067 31.5462 95.0305 29.7521 92.833 29.7521H92.8395ZM80.0042 48.5251H71.4279C70.3518 48.5251 69.4832 47.6477 69.4832 46.5607C69.4832 45.4737 70.3518 44.5963 71.4279 44.5963H80.0042C81.0803 44.5963 81.9489 45.4737 81.9489 46.5607C81.9489 47.6477 81.0803 48.5251 80.0042 48.5251ZM87.9128 41.1979H71.4279C70.3518 41.1979 69.4832 40.3205 69.4832 39.2335C69.4832 38.1466 70.3518 37.2691 71.4279 37.2691H87.9128C88.9889 37.2691 89.8575 38.1466 89.8575 39.2335C89.8575 40.3205 88.9889 41.1979 87.9128 41.1979Z" fill="url(#paint2_linear_0_1)"/><path d="M45.4629 66.4879C51.3037 66.4879 56.006 61.9083 56.006 56.244C56.006 50.5797 51.3037 46 45.4629 46C39.6221 46 34.9197 50.5797 34.9197 56.244C34.9197 61.9083 39.6468 66.4879 45.4629 66.4879Z" fill="url(#paint3_linear_0_1)"/><path d="M60.4856 87C62.4408 87 64 85.4815 64 83.5773C64 81.9383 64.099 80.251 63.406 78.7084C62.8863 77.5273 61.9953 76.4668 61.1044 75.575C59.1492 73.5744 56.6495 72.1282 54.0013 71.164C51.3532 70.1999 48.3585 69.6937 45.4629 69.6937H45.5371C42.6415 69.6937 39.6468 70.1999 36.9987 71.164C34.3505 72.1282 31.8508 73.5744 29.8957 75.575C29.0047 76.4909 28.1137 77.5514 27.594 78.7084C26.901 80.251 27 81.9624 27 83.5773C27 85.4574 28.584 87 30.5144 87H60.4856Z" fill="url(#paint4_linear_0_1)"/><path d="M45.4629 66.4879C51.3037 66.4879 56.006 61.9083 56.006 56.244C56.006 50.5797 51.3037 46 45.4629 46C39.6221 46 34.9197 50.5797 34.9197 56.244C34.9197 61.9083 39.6468 66.4879 45.4629 66.4879Z" stroke="url(#paint5_linear_0_1)"/><path d="M60.4856 87C62.4408 87 64 85.4815 64 83.5773C64 81.9383 64.099 80.251 63.406 78.7084C62.8863 77.5273 61.9953 76.4668 61.1044 75.575C59.1492 73.5744 56.6495 72.1282 54.0013 71.164C51.3532 70.1999 48.3585 69.6937 45.4629 69.6937H45.5371C42.6415 69.6937 39.6468 70.1999 36.9987 71.164C34.3505 72.1282 31.8508 73.5744 29.8957 75.575C29.0047 76.4909 28.1137 77.5514 27.594 78.7084C26.901 80.251 27 81.9624 27 83.5773C27 85.4574 28.584 87 30.5144 87H60.4856Z" stroke="url(#paint6_linear_0_1)"/></g><defs><linearGradient id="paint1_linear_0_1" x1="60" y1="5.17919e-05" x2="60" y2="120" gradientUnits="userSpaceOnUse"><stop stop-color="#FE9D02"/><stop offset="1" stop-color="#F7701D"/></linearGradient><linearGradient id="paint2_linear_0_1" x1="79.6639" y1="29.7521" x2="79.6639" y2="64.4628" gradientUnits="userSpaceOnUse"><stop stop-color="white"/><stop offset="1" stop-color="#FFFCEF"/></linearGradient><linearGradient id="paint3_linear_0_1" x1="45.5" y1="46" x2="45.5" y2="87" gradientUnits="userSpaceOnUse"><stop stop-color="white"/><stop offset="1" stop-color="#EB8B16"/></linearGradient><linearGradient id="paint4_linear_0_1" x1="45.5" y1="46" x2="45.5" y2="87" gradientUnits="userSpaceOnUse"><stop stop-color="white"/><stop offset="1" stop-color="#EB8B16"/></linearGradient><linearGradient id="paint5_linear_0_1" x1="45.5" y1="46" x2="45.5" y2="87" gradientUnits="userSpaceOnUse"><stop offset="0.232498" stop-color="white"/><stop offset="1" stop-color="#FFAD47"/></linearGradient><linearGradient id="paint6_linear_0_1" x1="45.5" y1="46" x2="45.5" y2="87" gradientUnits="userSpaceOnUse"><stop offset="0.232498" stop-color="white"/><stop offset="1" stop-color="#FFAD47"/></linearGradient><clipPath id="clip0_0_1"></clipPath></defs></svg>

<svg fill="none" viewBox="0 0 120 120"><path fill="url(#a)" d="M0 30C0 13.432 13.432 0 30 0h60c16.569 0 30 13.432 30 30v60c0 16.569-13.431 30-30 30H30c-16.568 0-30-13.431-30-30z"/><path fill="url(#b)" d="M92.84 29.752H66.494c-2.198 0-3.974 1.794-3.974 4.014v20.636a2 2 0 0 0 2 2h2.729a2 2 0 0 1 2 2v1.553c0 1.735 2.056 2.647 3.342 1.483l4.993-4.519a2 2 0 0 1 1.342-.517h13.906c2.191 0 3.974-1.794 3.974-4.014V33.766c0-2.22-1.776-4.014-3.974-4.014zM80.003 48.525h-8.576a1.95 1.95 0 0 1-1.945-1.964c0-1.087.869-1.965 1.945-1.965h8.576c1.076 0 1.945.878 1.945 1.965a1.95 1.95 0 0 1-1.945 1.964m7.909-7.327H71.428a1.95 1.95 0 0 1-1.945-1.965c0-1.086.869-1.964 1.945-1.964h16.485c1.076 0 1.945.878 1.945 1.965a1.95 1.95 0 0 1-1.945 1.964" opacity=".8"/><path fill="url(#c)" d="M45.463 66.488c5.84 0 10.543-4.58 10.543-10.244S51.304 46 45.463 46 34.92 50.58 34.92 56.244s4.727 10.244 10.543 10.244"/><path fill="url(#d)" d="M60.486 87C62.44 87 64 85.481 64 83.577c0-1.639.099-3.326-.594-4.869-.52-1.18-1.41-2.241-2.302-3.133-1.955-2-4.454-3.447-7.103-4.411s-5.642-1.47-8.538-1.47h.074c-2.895 0-5.89.506-8.538 1.47s-5.148 2.41-7.103 4.411c-.891.916-1.782 1.976-2.302 3.133-.693 1.543-.594 3.254-.594 4.87C27 85.457 28.584 87 30.514 87z"/><path stroke="url(#e)" d="M45.463 66.488c5.84 0 10.543-4.58 10.543-10.244S51.304 46 45.463 46 34.92 50.58 34.92 56.244s4.727 10.244 10.543 10.244Z"/><path stroke="url(#f)" d="M60.486 87C62.44 87 64 85.481 64 83.577c0-1.639.099-3.326-.594-4.869-.52-1.18-1.41-2.241-2.302-3.133-1.955-2-4.454-3.447-7.103-4.411s-5.642-1.47-8.538-1.47h.074c-2.895 0-5.89.506-8.538 1.47s-5.148 2.41-7.103 4.411c-.891.916-1.782 1.976-2.302 3.133-.693 1.543-.594 3.254-.594 4.87C27 85.457 28.584 87 30.514 87z"/><defs><linearGradient id="a" x1="60" x2="60" y1="0" y2="120" gradientUnits="userSpaceOnUse"><stop stop-color="#FE9D02"/><stop offset="1" stop-color="#F7701D"/></linearGradient><linearGradient id="b" x1="79.664" x2="79.664" y1="29.752" y2="64.463" gradientUnits="userSpaceOnUse"><stop stop-color="white"/><stop offset="1" stop-color="#FFFCEF"/></linearGradient><linearGradient id="c" x1="45.5" x2="45.5" y1="46" y2="87" gradientUnits="userSpaceOnUse"><stop stop-color="white"/><stop offset="1" stop-color="#EB8B16"/></linearGradient><linearGradient id="d" x1="45.5" x2="45.5" y1="46" y2="87" gradientUnits="userSpaceOnUse"><stop stop-color="white"/><stop offset="1" stop-color="#EB8B16"/></linearGradient><linearGradient id="e" x1="45.5" x2="45.5" y1="46" y2="87" gradientUnits="userSpaceOnUse"><stop offset=".232" stop-color="white"/><stop offset="1" stop-color="#FFAD47"/></linearGradient><linearGradient id="f" x1="45.5" x2="45.5" y1="46" y2="87" gradientUnits="userSpaceOnUse"><stop offset=".232" stop-color="white"/><stop offset="1" stop-color="#FFAD47"/></linearGradient></defs></svg>
